X:39
T: Gottselige Strickerin
N: D0041
O: Europa, Mitteleuropa, Lothringen, Rechicourt ( Kr. Saarburg )
N: Verzierungen; Inzipit = Variante zum Lied
R: religioeses Erzaehl - Lied
M: 3/8
L: 1/16
K: F
F2 | F2F2F2 | F2F2F2 | G2G2A2 | B4B2 | F4
F2 | B2B2c2 | d2d2dc | B2G2A2 | B6 | z4
B2 | c2B2c2 | d2d2c2 | B6 | G6
c4d2 | B3AF2 | G2A2A2 | F6 | z4
F2 | B2B2c2 | d2d2c2 | B6 | G6
c4d2 | B3AF2 | G2A2F2 | F4

